X:1
T:Joseph Lieber, Joseph Mein
M:6/8
L:1/4
K:Eb
 B G/2 E G/2| B c/2 B3/2| B G/2 E/2E/2G/2| B c/2 B3/2| A A/2A/2-A/2 B/2|\
 A G/2 F G/2| B G/2 E G/2| F E/2 F G/2| E3/2 E E/2| B B/2 B/2B/2B/2|\
 e d/2 c B/2| B =A/2 B3/2| E F/2 G/2G/2A/2| B A/2 G A/2| F F/2 E3/2|\
 B3/2 G3/2| B3/2 G3/2| E F/2 G B/2| A G/2 F G/2| E3/2 E3/2|
